X:1
T: The Marquis of Beaumont
C:
R:Reel
Q: 232
K:A
M:4/4
L:1/8
|:c|A2 cd ec fd|ec Ac dB Bc|A2 cd ec fd|ec ac B3c|
A2 cd ec fd|ec Ac dB Bc|A2 cd ec fd|ec ac B3c|
Ac ef ec Ac|Bc de fB Bc|Ac ef ec Ac|ec ac B3c|
Ac ef ec Ac|Bc de fB Bd|ce df eg fa|ec ac B3:|
